src/standard/media/quotemark-open.svg

<svg xmlns="http://www.w3.org/2000/svg" viewBox="0 0 36 36">
  <path d="M10 15.38H5.63A5.9 5.9 0 0 1 12 9.64a.61.61 0 0 0 .67-.57c.05-.63-.63-.73-1.12-.69a7.12 7.12 0 0 0-7.17 7.12V27a.61.61 0 0 0 .62.62h11a.61.61 0 0 0 .62-.62v-5A6.63 6.63 0 0 0 10 15.38Zm5.38 11H5.62v-9.76H10A5.39 5.39 0 0 1 15.38 22Zm9.62-11h-4.37A5.9 5.9 0 0 1 27 9.64a.62.62 0 0 0 .67-.57c.05-.63-.63-.73-1.12-.69a7.12 7.12 0 0 0-7.12 7.12V27a.61.61 0 0 0 .62.62H31a.61.61 0 0 0 .62-.62v-5A6.63 6.63 0 0 0 25 15.38Zm5.38 11h-9.76v-9.76H25A5.39 5.39 0 0 1 30.38 22Z"/>
</svg>

<svg id="f9a45726-2723-4740-bd8d-a88feb5bd8a5" data-name="Icon" xmlns="http://www.w3.org/2000/svg" viewBox="0 0 36 36">
  <g>
    <path d="M10,15.38H5.63A5.9,5.9,0,0,1,12,9.64a.61.61,0,0,0,.67-.57c.05-.63-.63-.73-1.12-.69A7.12,7.12,0,0,0,4.38,15.5c0,.68,0,10.54,0,11.5a.61.61,0,0,0,.62.62H16a.61.61,0,0,0,.62-.62V22A6.63,6.63,0,0,0,10,15.38Zm5.38,11H5.62V16.62H10A5.39,5.39,0,0,1,15.38,22Z"/>
    <path d="M25,15.38H20.63A5.9,5.9,0,0,1,27,9.64a.62.62,0,0,0,.67-.57c.05-.63-.63-.73-1.12-.69a7.12,7.12,0,0,0-7.12,7.12c0,.68,0,10.54,0,11.5a.61.61,0,0,0,.62.62H31a.61.61,0,0,0,.62-.62V22A6.63,6.63,0,0,0,25,15.38Zm5.38,11H20.62V16.62H25A5.39,5.39,0,0,1,30.38,22Z"/>
  </g>
</svg>
